symbolic/32x32/mimetypes/application-vnd.wolfram.cdf.svg

<svg xmlns="http://www.w3.org/2000/svg" width="32" height="32" version="1.1">
 <path style="opacity:0.2" d="M 6.375,3 C 5.61325,3 5,3.6244 5,4.4 V 29.6 C 5,30.37504 5.61325,31 6.375,31 h 19.25 C 26.3862,31 27,30.37504 27,29.6 V 12 L 20,10 18,3 Z"/>
 <path style="fill:#e4e4e4" d="M 6.375,2 C 5.61325,2 5,2.6244 5,3.4 V 28.6 C 5,29.37504 5.61325,30 6.375,30 h 19.25 C 26.3862,30 27,29.37504 27,28.6 V 11 L 20,9 18,2 Z"/>
 <path style="opacity:0.2" d="M 27,12 18,3 v 7.59375 C 18,11.373375 18.62775,12 19.40625,12 Z"/>
 <path style="fill:#fafafa" d="M 27,11 18,2 V 9.59375 C 18,10.373375 18.62775,11 19.40625,11 Z"/>
 <path style="opacity:0.2;fill:#ffffff" d="M 6.375,2 C 5.61325,2 5,2.6247906 5,3.4003906 v 1 C 5,3.6247906 5.61325,3 6.375,3 H 18 V 2 Z"/>
 <path style="opacity:0.1" d="M 14.990234,14 C 11.62079,13.999962 8.999895,16.836537 9,20.171875 9.000048,23.507103 11.366991,26.00004 14.736328,26 c 4.24755,-0.275136 5.09163,-6.386296 1.386719,-5.669922 -0.0447,0.145175 1.03998,0.564994 1.117187,1.326172 0.151752,1.496105 -1.032741,2.397306 -2.509765,2.113281 C 13.651327,23.562018 12.3487,22.649326 12.095703,21.740234 11.861781,20.899683 11.978153,19.890642 12.226562,19.220703 13.399342,16.057823 17.54041,15.220104 19,15.259766 17.858072,14.399874 16.602284,14.001649 14.990234,14 Z m 2.273438,3 c -4.247551,0.275136 -5.091631,6.386296 -1.386719,5.669922 0.0447,-0.145175 -1.03998,-0.564994 -1.117187,-1.326172 -0.151752,-1.496105 1.032741,-2.397306 2.509765,-2.113281 1.079142,0.207513 2.381769,1.120205 2.634766,2.029297 0.233922,0.840551 0.117549,1.849592 -0.130859,2.519531 C 18.600659,26.942177 14.459591,27.779896 13,27.740234 14.141929,28.600126 15.397716,28.998351 17.009766,29 20.37921,29.000039 23.000104,26.163463 23,22.828125 22.999952,19.492897 20.633009,16.99996 17.263672,17 Z"/>
 <path style="fill:#d6342a" d="M 14.990234,13 C 11.62079,12.999962 8.999895,15.836537 9,19.171875 9.000048,22.507103 11.366991,25.00004 14.736328,25 c 4.24755,-0.275136 5.09163,-6.386296 1.386719,-5.669922 -0.0447,0.145175 1.03998,0.564994 1.117187,1.326172 0.151752,1.496105 -1.032741,2.397306 -2.509765,2.113281 C 13.651327,22.562018 12.3487,21.649326 12.095703,20.740234 11.861781,19.899683 11.978153,18.890642 12.226562,18.220703 13.399342,15.057823 17.54041,14.220104 19,14.259766 17.858072,13.399874 16.602284,13.001649 14.990234,13 Z m 2.273438,3 c -4.247551,0.275136 -5.091631,6.386296 -1.386719,5.669922 0.0447,-0.145175 -1.03998,-0.564994 -1.117187,-1.326172 -0.151752,-1.496105 1.032741,-2.397306 2.509765,-2.113281 1.079142,0.207513 2.381769,1.120205 2.634766,2.029297 0.233922,0.840551 0.117549,1.849592 -0.130859,2.519531 C 18.600659,25.942177 14.459591,26.779896 13,26.740234 14.141929,27.600126 15.397716,27.998351 17.009766,28 20.37921,28.000039 23.000104,25.163463 23,21.828125 22.999952,18.492897 20.633009,15.99996 17.263672,16 Z"/>
</svg>

<svg xmlns="http://www.w3.org/2000/svg" width="32" height="32"><path style="opacity:.2" d="M6.375 3C5.613 3 5 3.624 5 4.4v25.2c0 .775.613 1.4 1.375 1.4h19.25c.761 0 1.375-.625 1.375-1.4V12l-7-2-2-7z"/><path style="fill:#e4e4e4" d="M6.375 2C5.613 2 5 2.624 5 3.4v25.2c0 .775.613 1.4 1.375 1.4h19.25c.761 0 1.375-.625 1.375-1.4V11l-7-2-2-7z"/><path style="opacity:.2" d="m27 12-9-9v7.594c0 .78.628 1.406 1.406 1.406z"/><path style="fill:#fafafa" d="m27 11-9-9v7.594c0 .78.628 1.406 1.406 1.406z"/><path style="opacity:.2;fill:#fff" d="M6.375 2C5.613 2 5 2.625 5 3.4v1C5 3.625 5.613 3 6.375 3H18V2z"/><path style="opacity:.1" d="M14.99 14C11.62 14 9 16.837 9 20.172 9 23.507 11.367 26 14.736 26c4.248-.275 5.092-6.386 1.387-5.67-.045.145 1.04.565 1.117 1.326.152 1.496-1.033 2.398-2.51 2.114-1.079-.208-2.381-1.12-2.634-2.03-.234-.84-.118-1.85.13-2.52 1.173-3.162 5.314-4 6.774-3.96-1.142-.86-2.398-1.258-4.01-1.26zm2.274 3c-4.248.275-5.092 6.386-1.387 5.67.045-.145-1.04-.565-1.117-1.326-.152-1.496 1.033-2.398 2.51-2.114 1.079.208 2.381 1.12 2.634 2.03.234.84.118 1.85-.13 2.52-1.173 3.162-5.314 4-6.774 3.96 1.142.86 2.398 1.258 4.01 1.26 3.37 0 5.99-2.837 5.99-6.172C23 19.493 20.633 17 17.264 17z"/><path style="fill:#d6342a" d="M14.99 13C11.62 13 9 15.837 9 19.172 9 22.507 11.367 25 14.736 25c4.248-.275 5.092-6.386 1.387-5.67-.045.145 1.04.565 1.117 1.326.152 1.496-1.033 2.398-2.51 2.114-1.079-.208-2.381-1.12-2.634-2.03-.234-.84-.118-1.85.13-2.52 1.173-3.162 5.314-4 6.774-3.96-1.142-.86-2.398-1.258-4.01-1.26zm2.274 3c-4.248.275-5.092 6.386-1.387 5.67.045-.145-1.04-.565-1.117-1.326-.152-1.496 1.033-2.398 2.51-2.114 1.079.208 2.381 1.12 2.634 2.03.234.84.118 1.85-.13 2.52-1.173 3.162-5.314 4-6.774 3.96 1.142.86 2.398 1.258 4.01 1.26 3.37 0 5.99-2.837 5.99-6.172C23 18.493 20.633 16 17.264 16z"/></svg>
